!!!!SEGMENT: Ric2037-Gloria_laus_et_honor--Liber_primus
!!!id: Ric2037
!!!SMS: Liber primus
!!!AGN: Motet
!!!voices: 4
!!!COM: Jean Richafort
!!!OTL: Gloria laus et honor (Liber primus)
**kern	**text	**kern	**text	**kern	**text	**kern	**text
*part4	*part4	*part3	*part3	*part2	*part2	*part1	*part1
*staff4	*staff4	*staff3	*staff3	*staff2	*staff2	*staff1	*staff1
*I"Bassus	*	*I"Tenor	*	*I"Altus	*	*I"Superius	*
*I'B	*	*I'T	*	*I'A	*	*I'S	*
*clefF4	*	*clefGv2	*	*clefGv2	*	*clefGv2	*
*k[]	*	*k[]	*	*k[]	*	*k[]	*
*C:	*	*C:	*	*C:	*	*C:	*
*M2/1	*	*M2/1	*	*M2/1	*	*M2/1	*
*met(C|)	*	*met(C|)	*	*met(C|)	*	*met(C|)	*
!!section: Gloria, laus, et honor
!!!OMD: Gloria, laus, et honor
=1	=1	=1	=1	=1	=1	=1	=1
[0D	Glo-	0D	Glo-	0A	Glo-	0d	Glo-
=2	=2	=2	=2	=2	=2	=2	=2
0D]	.	0A	.	1.d	.	0f	.
.	.	.	.	2A	.	.	.
=3	=3	=3	=3	=3	=3	=3	=3
1C	-ri-	1A	-ri-	1c	-ri-	1e	-ri-
1D	-a	1A	-a	2.F	-a	[1d	-a
.	.	.	.	4G	.	.	.
=4	=4	=4	=4	=4	=4	=4	=4
0F	laus	2.A	laus,	2.A	.	2d]	.
.	.	.	.	.	.	2c	.
.	.	4G	.	4B	.	.	.
.	.	4F	.	2c	.	1A	.
.	.	4E	.	.	.	.	.
.	.	[2A	.	2d	.	.	.
=5	=5	=5	=5	=5	=5	=5	=5
0E	.	2A]	.	1e	.	0B	laus
.	.	4G#i	.	.	.	.	.
.	.	4F#i	.	.	.	.	.
.	.	1G#i	.	1E	.	.	.
=6	=6	=6	=6	=6	=6	=6	=6
1r	.	1A	.	0F	laus	0A	.
[1D	et	2D	glo-	.	.	.	.
.	.	[2A	.	.	.	.	.
=7	=7	=7	=7	=7	=7	=7	=7
1D]	.	2A]	.	0E	.	1r	.
.	.	4G	.	.	.	.	.
.	.	4F	.	.	.	.	.
1C	.	2E	.	.	.	1e	et
.	.	[2A	.	.	.	.	.
=8	=8	=8	=8	=8	=8	=8	=8
0D	.	2A]	.	1r	.	1.f	ho-
.	.	1G	-ri-	.	.	.	.
.	.	.	.	1A	et	.	.
.	.	2F	-a	.	.	4e	.
.	.	.	.	.	.	4d	.
=9	=9	=9	=9	=9	=9	=9	=9
1.E	ho-	0G	laus	1.c	ho-	2e	-nor
.	.	.	.	.	.	2.g	ti-
.	.	.	.	.	.	4f	.
2D	-nor	.	.	2B	-nor	2d	.
=10	=10	=10	=10	=10	=10	=10	=10
1C	ti-	1r	.	2A	ti-	2e	.
.	.	.	.	2.G	-bi	4d	.
.	.	.	.	.	.	4c	.
1BB	-bi	1G	et	.	.	1d	.
.	.	.	.	4F	.	.	.
.	.	.	.	2D	.	.	.
=11	=11	=11	=11	=11	=11	=11	=11
[0AA	sit	1.A	ho-	0E	sit	2.c	.
.	.	.	.	.	.	4d	.
.	.	.	.	.	.	4e	.
.	.	.	.	.	.	4f	.
.	.	2G	-nor	.	.	[2e	.
=12	=12	=12	=12	=12	=12	=12	=12
0AA]	.	1F	ti-	2r	.	4e]	.
.	.	.	.	.	.	4d	.
.	.	.	.	2A	Rex	1d	.
.	.	1E	-bi	[1A	Chris-	.	.
.	.	.	.	.	.	2c#i	-bi
=13	=13	=13	=13	=13	=13	=13	=13
2r	.	[0D	sit	1A]	.	0d	sit
2D	Rex	.	.	.	.	.	.
1D	Chris-	.	.	2D	-te,	.	.
.	.	.	.	2d	Rex	.	.
=14	=14	=14	=14	=14	=14	=14	=14
0GG	-te,	1D]	.	1d	Chris-	2r	.
.	.	.	.	.	.	2d	Rex
.	.	2r	.	1G	-te	1d	Chris-
.	.	2G	Rex	.	.	.	.
=15	=15	=15	=15	=15	=15	=15	=15
2r	.	1G	Chris-	2r	.	1G	-te,
2G	Rex	.	.	2B	Re-	.	.
1G	Chris-	1C	-te,	[1c	-demp-	2r	.
.	.	.	.	.	.	2g	Rex
=16	=16	=16	=16	=16	=16	=16	=16
1C	-te	2r	.	1c]	.	1g	Chris-
.	.	2c	Rex	.	.	.	.
2.F	Re-	1c	Chris-	1A	.	1c	-te
4G	.	.	.	.	.	.	.
=17	=17	=17	=17	=17	=17	=17	=17
4A	.	2.F	-te	1.c	.	2.f	Re-
4G	.	.	.	.	.	.	.
1A	.	.	.	.	.	.	.
.	.	4G	.	.	.	4e	.
.	.	2A	.	.	.	2f	.
4G	.	[2B	Re-	2d	.	[2g	.
4F	.	.	.	.	.	.	.
=18	=18	=18	=18	=18	=18	=18	=18
2E	-demp-	2B]	.	4e	.	4g]	.
.	.	.	.	4d	.	4f	.
2F	.	2A	.	4c	.	1f	-demp-
.	.	.	.	4B	.	.	.
1C	-tor:	1G	-demp-	[1c	-tor:	.	.
.	.	.	.	.	.	2e	.
=19	=19	=19	=19	=19	=19	=19	=19
1r	.	0F	-tor:	1c]	.	0f	-tor:
1F	cu-	.	.	2r	.	.	.
.	.	.	.	2F	cu-	.	.
=20	=20	=20	=20	=20	=20	=20	=20
1A	.	1r	.	4F	-i	2r	.
.	.	.	.	4G	.	.	.
.	.	.	.	4A	.	2F	cu-
.	.	.	.	4B	.	.	.
1A	-i	2r	.	1c	.	4F	-i
.	.	.	.	.	.	4G	.
.	.	2F	cu-	.	.	4A	.
.	.	.	.	.	.	4B	.
=21	=21	=21	=21	=21	=21	=21	=21
1A	pu-	4F	-i	1r	.	2c	.
.	.	4G	.	.	.	.	.
.	.	4A	.	.	.	2F	pu-
.	.	4B	.	.	.	.	.
2.A	-er-	2c	.	1F	cu-	4F	-er-
.	.	.	.	.	.	4G	.
.	.	2F	pu-	.	.	4A	.
4G	.	.	.	.	.	4B	.
=22	=22	=22	=22	=22	=22	=22	=22
4F	.	4F	-er-	1A	.	2c	.
4E	.	4G	.	.	.	.	.
2D	.	4A	.	.	.	2d	.
.	.	4B	.	.	.	.	.
2C	-i-	2c	.	1A	-i	2e	.
[2D	-le	2A	-i-	.	.	[2f	.
=23	=23	=23	=23	=23	=23	=23	=23
2D]	.	1d	-le	1A	pu-	2f]	.
4C	.	.	.	.	.	4e	-i-
4BB	.	.	.	.	.	4d	.
4AA	.	2r	.	[1A	-er-	1e	-le
4BB	.	.	.	.	.	.	.
4C	.	[2c	de-	.	.	.	.
4D	.	.	.	.	.	.	.
=24	=24	=24	=24	=24	=24	=24	=24
1E	.	2c]	.	2A]	.	1r	.
.	.	2B	.	2G	.	.	.
2r	.	2.A	.	4F	.	[1c	de-
.	.	.	.	4G	.	.	.
[2F	de-	.	.	4A	.	.	.
.	.	4G	.	4B	.	.	.
=25	=25	=25	=25	=25	=25	=25	=25
2F]	.	2F	.	2A	.	1c]	.
2E	.	2G	.	1G	.	.	.
1D	-cus	1A	-cus,	.	.	1d	.
.	.	.	.	2F#i	-i-	.	.
=26	=26	=26	=26	=26	=26	=26	=26
2.G	promp-	1G	.	1G	-le	1B	-cus
4F	.	.	.	.	.	.	.
2E	.	2r	.	1r	.	4G	promp-
.	.	.	.	.	.	4A	.
[2D	.	[2F	de-	.	.	4B	.
.	.	.	.	.	.	4c	.
=27	=27	=27	=27	=27	=27	=27	=27
2D]	.	2F]	.	2r	.	2d	.
2C	.	2E	.	2C	de-	2e	.
1BB-X	-sit	2D	-cus	2.F	-cus	2f	.
.	.	[2F	promp-	.	.	[2d	.
.	.	.	.	4G	.	.	.
=28	=28	=28	=28	=28	=28	=28	=28
1AA	.	2F]	.	4A	.	4d]	.
.	.	.	.	4B	.	4c	.
.	.	2E	.	1c	promp-	2c	.
1r	.	1D	-sit	.	.	1f	.
.	.	.	.	2B	.	.	.
=29	=29	=29	=29	=29	=29	=29	=29
0AA	O-	1r	.	1c	-sit	1e	-sit
.	.	1C	O-	1A	O-	[1e	O-
=30	=30	=30	=30	=30	=30	=30	=30
1C	-san-	0E	-san-	1G	-san-	2e]	.
.	.	.	.	.	.	2d	.
1AA	-na	.	.	1A	-na.	2c	-san-
.	.	.	.	.	.	2B	.
=31	=31	=31	=31	=31	=31	=31	=31
0D	pi-	1F	-na	2r	.	2A	-na
.	.	.	.	2D	O-	2.f	pi-
.	.	2D	pi-	2.F	-san-	.	.
.	.	.	.	.	.	4e	.
.	.	[2F	.	.	.	2d	.
.	.	.	.	4G	-na	.	.
=32	=32	=32	=32	=32	=32	=32	=32
0AA	-um.	2F]	.	0A	pi-	2c	.
.	.	4E	.	.	.	1d	.
.	.	4D	.	.	.	.	.
.	.	1E	.	.	.	.	.
.	.	.	.	.	.	2c#i	.
=33	=33	=33	=33	=33	=33	=33	=33
0Dl	.	0Dl	-um.	0Al	-um.	0dl	-um.
=34||	=34||	=34||	=34||	=34||	=34||	=34||	=34||
*M2/1	*	*M2/1	*	*M2/1	*	*M2/1	*
*met(C|)	*	*met(C|)	*	*met(C|)	*	*met(C|)	*
!!section: Israel es
!!!OMD: Israel es
0D	Is-	0r	.	0d	Is-	[0a	Is-
=35	=35	=35	=35	=35	=35	=35	=35
0F	-ra-	0A	Is-	1c	-ra-	0a]	.
.	.	.	.	1d	-el	.	.
=36	=36	=36	=36	=36	=36	=36	=36
1G	-el	1B	-ra-	1d	es	1g	-ra-
1D	.	[1d	-el	1f	.	1a	.
=37	=37	=37	=37	=37	=37	=37	=37
1.F	es	1d]	.	0f	tu	0a	-el
.	.	1c	es	.	.	.	.
2G	.	.	.	.	.	.	.
=38	=38	=38	=38	=38	=38	=38	=38
1A	.	1.c	tu	[0e	.	1a	es
2.AA	tu	.	.	.	.	1cc	.
.	.	2B	.	.	.	.	.
4BB	.	.	.	.	.	.	.
=39	=39	=39	=39	=39	=39	=39	=39
2.C	.	1A	.	0e]	.	1cc	tu
4D	.	.	.	.	.	.	.
1E	.	1G	.	.	.	2b	.
.	.	.	.	.	.	[2cc	.
=40	=40	=40	=40	=40	=40	=40	=40
0F	Rex	0A	Rex	1.c	Rex	4cc]	.
.	.	.	.	.	.	4b	.
.	.	.	.	.	.	4a	.
.	.	.	.	.	.	4g	.
.	.	.	.	.	.	1a	.
.	.	.	.	2d	.	.	.
=41	=41	=41	=41	=41	=41	=41	=41
0E	.	0B	.	0e	.	0g	Rex
=42	=42	=42	=42	=42	=42	=42	=42
0E	Da-	2.G	Da-	1r	.	1r	.
.	.	4A	.	.	.	.	.
.	.	2B	.	1e	Da-	1g	Da-
.	.	2G	.	.	.	.	.
=43	=43	=43	=43	=43	=43	=43	=43
1D	.	1d	.	1f	-vi-	1a	-vi-
1C	.	1e	.	[1g	.	[1cc	.
=44	=44	=44	=44	=44	=44	=44	=44
0G	-vi-	0d	-vi-	2g]	.	2cc]	.
.	.	.	.	4f	.	4b	.
.	.	.	.	4e	.	4a	.
.	.	.	.	1d	-dis	1b	.
=45	=45	=45	=45	=45	=45	=45	=45
0C	-dis	1c	-dis	1e	.	[0cc	-dis
.	.	1r	.	[1g	et	.	.
=46	=46	=46	=46	=46	=46	=46	=46
1r	.	1.c	et	2g]	.	0cc_	.
.	.	.	.	2f	in-	.	.
1C	et	.	.	2.e	-cly-	.	.
.	.	2B	in-	.	.	.	.
.	.	.	.	4d	.	.	.
=47	=47	=47	=47	=47	=47	=47	=47
1.F	in-	2.A	-cly-	1c	.	0cc]	.
.	.	4G	.	.	.	.	.
.	.	2.c	.	[1f	.	.	.
2E	.	.	.	.	.	.	.
.	.	8BL	.	.	.	.	.
.	.	8cJ	.	.	.	.	.
=48	=48	=48	=48	=48	=48	=48	=48
2.D	-cly-	4B	.	2f]	.	0dd	et
.	.	4A	.	.	.	.	.
.	.	1A	.	2e	.	.	.
4C	.	.	.	.	.	.	.
1BB	.	.	.	2.d	-ta	.	.
.	.	2G#i	.	.	.	.	.
.	.	.	.	4c	.	.	.
=49	=49	=49	=49	=49	=49	=49	=49
0AA	-ta	1A	-ta	1f	pro-	1.cc	in-
.	.	[1c	.	1e	.	.	.
.	.	.	.	.	.	2b	.
=50	=50	=50	=50	=50	=50	=50	=50
1.A	pro-	2c]	.	[0e	-les:	2.a	-cly-
.	.	4B	.	.	.	.	.
.	.	4A	.	.	.	4g	.
.	.	[1e	pro-	.	.	1cc	-ta
4G	.	.	.	.	.	.	.
4F	.	.	.	.	.	.	.
=51	=51	=51	=51	=51	=51	=51	=51
2G	.	2e]	.	0e]	.	2b	.
2A	.	4d	.	.	.	1a	pro-
.	.	4c	.	.	.	.	.
1E	.	1B	.	.	.	.	.
.	.	.	.	.	.	2g#i	.
=52	=52	=52	=52	=52	=52	=52	=52
2.F	.	2.A	.	1r	.	[0a	-les:
4E	.	4G	.	.	.	.	.
4D	.	4F	.	[1d	no-	.	.
4C	.	4E	.	.	.	.	.
[2D	.	[2F	.	.	.	.	.
=53	=53	=53	=53	=53	=53	=53	=53
2D]	.	2F]	.	1d]	.	0a]	.
4C	.	4E	.	.	.	.	.
4BB	.	4D	.	.	.	.	.
1AA	-les:	1E	.	1c	-mi-	.	.
=54	=54	=54	=54	=54	=54	=54	=54
0r	.	1D	-les:	2.d	-ne	1r	.
.	.	.	.	4e	.	.	.
.	.	2r	.	4f	.	[1a	no-
.	.	.	.	4e	.	.	.
.	.	[2d	no-	[2f	.	.	.
=55	=55	=55	=55	=55	=55	=55	=55
0r	.	2d]	.	4f]	.	1a]	.
.	.	.	.	4e	.	.	.
.	.	2c	-mi-	1e	.	.	.
.	.	1B	-ne	.	.	1g	-mi-
.	.	.	.	2d	.	.	.
=56	=56	=56	=56	=56	=56	=56	=56
0r	.	1A	.	2e	.	1a	-ne
.	.	.	.	2c	qui	.	.
.	.	2r	.	2d	in	2.a	qui
.	.	[2F	qui	[2f	Do-	.	.
.	.	.	.	.	.	4b	.
=57	=57	=57	=57	=57	=57	=57	=57
0r	.	4F]	.	2f]	.	4cc	in
.	.	4G	.	.	.	4b	.
.	.	4A	.	4e	.	1cc	Do-
.	.	4B	.	4d	.	.	.
.	.	2c	in	2e	.	.	.
.	.	[2d	Do-	[2f	.	2b	.
=58	=58	=58	=58	=58	=58	=58	=58
0r	.	2d]	.	4f]	.	2a	.
.	.	.	.	4d	.	.	.
.	.	2B	.	1g	.	2g	.
.	.	2c	.	.	.	1a	-mi-
.	.	2d	.	2f#i	-mi-	.	.
=59	=59	=59	=59	=59	=59	=59	=59
0r	.	2B	.	1g	-ni	[0g	-ni
.	.	1c	-mi-	.	.	.	.
.	.	.	.	2r	.	.	.
.	.	4B	.	2c	Rex	.	.
.	.	4A	.	.	.	.	.
=60	=60	=60	=60	=60	=60	=60	=60
1r	.	1G	-ni	2.d	be-	0g]	.
.	.	.	.	4c	-ne-	.	.
1E	Rex	1e	Rex	1B	-dic-	.	.
=61	=61	=61	=61	=61	=61	=61	=61
1F	be-	1c	be-	1A	-te	1r	.
1D	-ne-	1d	-ne-	1f	ve-	[1a	Rex
=62	=62	=62	=62	=62	=62	=62	=62
0E	-dic-	0B	-dic-	[0el	-nis.	1a]	.
.	.	.	.	.	.	1g	be-
=63	=63	=63	=63	=63	=63	=63	=63
1AA	-te,	1.A	-te	0e_	.	1a	-ne-
2r	.	.	.	.	.	[1cc	-dic-
2A	Rex	4G	.	.	.	.	.
.	.	4F	.	.	.	.	.
=64	=64	=64	=64	=64	=64	=64	=64
2A	be-	1E	.	0e_	.	2cc]	.
2G	-ne-	.	.	.	.	2b	.
2A	-dic-	1r	.	.	.	2a	-te
[2c	-te	.	.	.	.	2g	ve-
=65	=65	=65	=65	=65	=65	=65	=65
4c]	.	2.A	ve-	0e_	.	1.cc	.
4B	.	.	.	.	.	.	.
1A	.	.	.	.	.	.	.
.	.	4B	.	.	.	.	.
.	.	4c	.	.	.	.	.
.	.	4d	.	.	.	.	.
4G	.	[2e	.	.	.	4b	.
4F	.	.	.	.	.	4a	.
=66	=66	=66	=66	=66	=66	=66	=66
2G	.	4e]	.	0e_	.	2b	.
.	.	4d	.	.	.	.	.
2A	.	2c	.	.	.	1a	.
1E	ve-	1B	.	.	.	.	.
.	.	.	.	.	.	2g#i	.
=67	=67	=67	=67	=67	=67	=67	=67
0AAl	-nis.	0Al	-nis.	0e]	.	0al	-nis.
=68||	=68||	=68||	=68||	=68||	=68||	=68||	=68||
*M2/1	*	*M2/1	*	*M2/1	*	*M2/1	*
*met(C|)	*	*met(C|)	*	*met(C|)	*	*met(C|)	*
!!section: Cetus in excelsis
!!!OMD: Cetus in excelsis
0r	.	0r	.	0A	Ce-	0r	.
=69	=69	=69	=69	=69	=69	=69	=69
0r	.	0r	.	1A	-tus	0r	.
.	.	.	.	1G	in	.	.
=70	=70	=70	=70	=70	=70	=70	=70
0r	.	0r	.	2.A	ex-	0a	Ce-
.	.	.	.	4B	.	.	.
.	.	.	.	2c	.	.	.
.	.	.	.	[2d	.	.	.
=71	=71	=71	=71	=71	=71	=71	=71
0r	.	0r	.	4d]	.	1a	-tus
.	.	.	.	4c	.	.	.
.	.	.	.	2A	.	.	.
.	.	.	.	2B	.	1g	in
.	.	.	.	[2c	.	.	.
=72	=72	=72	=72	=72	=72	=72	=72
0r	.	0A	Ce-	4c]	.	1a	ex-
.	.	.	.	4B	.	.	.
.	.	.	.	4A	.	.	.
.	.	.	.	4G	.	.	.
.	.	.	.	2F	.	1cc	.
.	.	.	.	[2f	.	.	.
=73	=73	=73	=73	=73	=73	=73	=73
0r	.	1A	-tus	4f]	.	1cc	-cel-
.	.	.	.	4e	.	.	.
.	.	.	.	2c	.	.	.
.	.	1G	in	2d	.	1b	.
.	.	.	.	[2e	.	.	.
=74	=74	=74	=74	=74	=74	=74	=74
0r	.	1A	ex-	4e]	.	0a	-sis
.	.	.	.	4d	.	.	.
.	.	.	.	4c	.	.	.
.	.	.	.	4B	.	.	.
.	.	[1c	.	2A	.	.	.
.	.	.	.	[2e	.	.	.
=75	=75	=75	=75	=75	=75	=75	=75
0r	.	2c]	.	2e]	.	2.g	.
.	.	4B	.	4d	.	.	.
.	.	4A	.	4c	.	4f	.
.	.	2G	.	2.d	.	4g	.
.	.	.	.	.	.	4e	.
.	.	2F	.	.	.	[2a	.
.	.	.	.	4c	.	.	.
=76	=76	=76	=76	=76	=76	=76	=76
0r	.	1G	-cel-	2B	.	4a]	.
.	.	.	.	.	.	4g	.
.	.	.	.	2G	.	1g	.
.	.	1D	-sis	1A	-cel-	.	.
.	.	.	.	.	.	2f#i	.
=77	=77	=77	=77	=77	=77	=77	=77
0r	.	1r	.	0G	-sis	0g	.
.	.	1G	te	.	.	.	.
=78	=78	=78	=78	=78	=78	=78	=78
0r	.	2A	lau-	0r	.	2r	.
.	.	2.c	-dat,	.	.	2g	te
.	.	.	.	.	.	2a	lau-
.	.	4B	.	.	.	.	.
.	.	4A	.	.	.	[2cc	-dat
.	.	4G	.	.	.	.	.
=79	=79	=79	=79	=79	=79	=79	=79
0r	.	2.F	.	2r	.	4cc]	.
.	.	.	.	.	.	4b	.
.	.	.	.	2c	te	4a	.
.	.	4E	.	.	.	4g	.
.	.	4D	.	2d	lau-	4f	.
.	.	4C	.	.	.	4e	.
.	.	[2d	.	[2f	-dat,	[2a	.
=80	=80	=80	=80	=80	=80	=80	=80
0r	.	4d]	.	4f]	.	4a]	.
.	.	4G	.	4e	.	4g	.
.	.	1c	.	4e	.	2g	.
.	.	.	.	8dL	.	.	.
.	.	.	.	8cJ	.	.	.
.	.	.	.	2d	.	2f	.
.	.	2B	.	2G	te	2g	.
=81	=81	=81	=81	=81	=81	=81	=81
0r	.	1c	.	2A	lau-	2e	.
.	.	.	.	1c	-dat	4d	.
.	.	.	.	.	.	4c	.
.	.	2r	.	.	.	1d	.
.	.	2G	te	2B	.	.	.
=82	=82	=82	=82	=82	=82	=82	=82
0r	.	2A	lau-	2c	.	1c	.
.	.	2.c	-dat	2.A	.	.	.
.	.	.	.	.	.	[1cc	ce-
.	.	4B	.	4B	.	.	.
.	.	[2A	.	4c	.	.	.
.	.	.	.	4d	.	.	.
=83	=83	=83	=83	=83	=83	=83	=83
0r	.	2A]	.	2e	.	1cc]	.
.	.	4G	.	1f	.	.	.
.	.	4F	.	.	.	.	.
.	.	1G	.	.	.	1b	-li-
.	.	.	.	2e	.	.	.
=84	=84	=84	=84	=84	=84	=84	=84
0r	.	1d	ce-	1f	.	0a	-tus
.	.	2c	-li-	2r	.	.	.
.	.	2A	-tus	[2f	ce-	.	.
=85	=85	=85	=85	=85	=85	=85	=85
0r	.	1c	om-	2f]	.	2.g	.
.	.	.	.	2e	-li-	.	.
.	.	.	.	.	.	4a	.
.	.	2B	.	2d	-tus	2b	.
.	.	[2A	.	2e	om-	[2cc	.
=86	=86	=86	=86	=86	=86	=86	=86
0r	.	4A]	.	2.c	.	4cc]	.
.	.	4G	.	.	.	4b	.
.	.	2A	.	.	.	1a	om-
.	.	.	.	8BL	.	.	.
.	.	.	.	8AJ	.	.	.
.	.	1E	.	1B	.	.	.
.	.	.	.	.	.	2g#i	.
=87	=87	=87	=87	=87	=87	=87	=87
0D	Et	0A	-nis,	1A	-nis,	[0a	-nis,
.	.	.	.	2r	.	.	.
.	.	.	.	2d	et	.	.
=88	=88	=88	=88	=88	=88	=88	=88
1D	mor-	0r	.	1f	mor-	0a_	.
1C	-ta-	.	.	1e	-ta-	.	.
=89	=89	=89	=89	=89	=89	=89	=89
1D	-lis	0A	et	1d	-lis	0a]	.
2.D	ho-	.	.	1d	ho-	.	.
4E	.	.	.	.	.	.	.
=90	=90	=90	=90	=90	=90	=90	=90
4F	.	1A	mor-	0c	-mo,	0r	.
4E	.	.	.	.	.	.	.
1F	.	.	.	.	.	.	.
.	.	1G	-ta-	.	.	.	.
2E	.	.	.	.	.	.	.
=91	=91	=91	=91	=91	=91	=91	=91
2D	.	2.A	-lis	0r	.	0r	.
1F	.	.	.	.	.	.	.
.	.	4B	.	.	.	.	.
.	.	4c	ho-	.	.	.	.
.	.	4B	.	.	.	.	.
4E	.	[2c	.	.	.	.	.
4D	.	.	.	.	.	.	.
=92	=92	=92	=92	=92	=92	=92	=92
2.C	.	2c]	.	1r	.	0r	.
.	.	4B	.	.	.	.	.
4D	.	4A	.	.	.	.	.
4E	.	2.G	.	2r	.	.	.
4F	.	.	.	.	.	.	.
[2G	.	.	.	2d	et	.	.
.	.	4A	.	.	.	.	.
=93	=93	=93	=93	=93	=93	=93	=93
2G]	.	4B	.	2e	mor-	1r	.
.	.	4c	.	.	.	.	.
4F	.	1d	.	1f	-ta-	.	.
4E	.	.	.	.	.	.	.
2D	.	.	.	.	.	1a	et
[2A	.	4c	.	2e	-lis	.	.
.	.	4B	.	.	.	.	.
=94	=94	=94	=94	=94	=94	=94	=94
4A]	.	1A	.	2c	ho-	1a	mor-
4G	.	.	.	.	.	.	.
2F	.	.	.	2d	.	.	.
1E	.	1B	.	[1e	-mo	1g	-ta-
=95	=95	=95	=95	=95	=95	=95	=95
0AA	-mo	0A	-mo	1e]	.	1a	.
.	.	.	.	2r	.	2.a	-lis
.	.	.	.	2c	et	.	.
.	.	.	.	.	.	4b	.
=96	=96	=96	=96	=96	=96	=96	=96
0r	.	1r	.	4c	cunc-	4cc	.
.	.	.	.	4d	.	4b	.
.	.	.	.	4e	.	1cc	ho-
.	.	.	.	4f	.	.	.
.	.	2r	.	1g	.	.	.
.	.	2G	et	.	.	2b	.
=97	=97	=97	=97	=97	=97	=97	=97
0r	.	2A	.	2f	.	1a	-mo
.	.	1c	cunc-	1e	.	.	.
.	.	.	.	.	.	1g	.
.	.	4B	.	4d	.	.	.
.	.	4A	.	4c	.	.	.
=98	=98	=98	=98	=98	=98	=98	=98
0r	.	2B	.	2d	.	2r	.
.	.	2.c	.	2.e	.	2g	et
.	.	.	.	.	.	2a	.
.	.	4B	.	4d	.	.	.
.	.	4A	.	[2g	.	[2cc	cunc-
.	.	4G	.	.	.	.	.
=99	=99	=99	=99	=99	=99	=99	=99
0r	.	1A	-ta	2g]	.	2cc]	.
.	.	.	.	2f#i	.	4b	.
.	.	.	.	.	.	4a	.
.	.	2r	.	1g	-ta	2.b	.
.	.	[2G	cre-	.	.	.	.
.	.	.	.	.	.	4cc	.
=100	=100	=100	=100	=100	=100	=100	=100
0r	.	4G]	.	2r	.	0dd	-ta
.	.	4F	.	.	.	.	.
.	.	4G	.	2d	cre-	.	.
.	.	8FL	.	.	.	.	.
.	.	8EJ	.	.	.	.	.
.	.	2D	.	[1f	-a-	.	.
.	.	[2F	-a-	.	.	.	.
=101	=101	=101	=101	=101	=101	=101	=101
0r	.	2F]	.	1f]	.	1.cc	cre-
.	.	4E	.	.	.	.	.
.	.	4D	.	.	.	.	.
.	.	2C	-ta	2e	.	.	.
.	.	[2G	si-	[2d	.	2b	.
=102	=102	=102	=102	=102	=102	=102	=102
0r	.	2G]	.	4d]	.	1a	-a-
.	.	.	.	4c	.	.	.
.	.	2F	.	2A	.	.	.
.	.	2.E	.	2B	-ta	2g	-ta
.	.	.	.	2e	si-	2cc	si-
.	.	4F	.	.	.	.	.
=103	=103	=103	=103	=103	=103	=103	=103
0r	.	2G	.	4d	.	4b	.
.	.	.	.	4c	.	4a	.
.	.	2A	.	4B	.	1a	.
.	.	.	.	4A	.	.	.
.	.	1E	.	1B	.	.	.
.	.	.	.	.	.	2g#i	.
=104	=104	=104	=104	=104	=104	=104	=104
0AAl	[mul.]	0Al	-mul.	0Al	-mul.	0al	-mul.
=105||	=105||	=105||	=105||	=105||	=105||	=105||	=105||
*M2/1	*	*M2/1	*	*M2/1	*	*M2/1	*
*met(C|)	*	*met(C|)	*	*met(C|)	*	*met(C|)	*
!!section: Plebs Hebrea
!!!OMD: Plebs Hebrea
0A	Plebs	0c	Plebs	0e	Plebs	0a	Plebs
=106	=106	=106	=106	=106	=106	=106	=106
1F	He-	1c	He-	1f	He-	1a	He-
1B-i	-bre-	[1d	-bre-	1d	-bre-	1g	-bre-
=107	=107	=107	=107	=107	=107	=107	=107
0A	-a	2d]	.	0e	-a	[0a	-a
.	.	4c#i	.	.	.	.	.
.	.	4B	.	.	.	.	.
.	.	1c#i	.	.	.	.	.
=108	=108	=108	=108	=108	=108	=108	=108
1.D	ti-	1d	.	1.f	ti-	0a]	.
.	.	[1A	-a	.	.	.	.
4C	.	.	.	4e	.	.	.
4BB	.	.	.	4d	.	.	.
=109	=109	=109	=109	=109	=109	=109	=109
1AA	.	1A]	.	2.c	.	0cc	.
.	.	.	.	4d	.	.	.
[1A	.	2.c	ti-	2e	.	.	.
.	.	.	.	4A	.	.	.
.	.	4d	.	4B	.	.	.
=110	=110	=110	=110	=110	=110	=110	=110
2A]	.	4e	.	4c	.	1cc	ti-
.	.	4f	.	4d	.	.	.
4G	.	2.e	.	4e	.	.	.
4A	.	.	.	4f	.	.	.
2G	.	.	.	2g	.	2b	.
.	.	4d	.	.	.	.	.
[2A	.	4c	.	[2f	.	[2cc	.
.	.	4B	.	.	.	.	.
=111	=111	=111	=111	=111	=111	=111	=111
4A]	.	2c	.	2f]	.	4cc]	.
4G	.	.	.	.	.	4b	.
2E	.	1B	.	1e	.	2g	.
1F	.	.	.	.	.	1a	.
.	.	2A	.	2d	.	.	.
=112	=112	=112	=112	=112	=112	=112	=112
1.E	.	1B	-bi	2.e	.	0g	-bi
.	.	.	.	4d	.	.	.
.	.	1G	.	2B	.	.	.
2C	.	.	.	[2c	.	.	.
=113	=113	=113	=113	=113	=113	=113	=113
0C	-bi	2r	.	2c]	.	1r	.
.	.	2G	cum	4B	.	.	.
.	.	.	.	4A	.	.	.
.	.	2.c	pal-	1G	-bi	1g	cum
.	.	4B	.	.	.	.	.
=114	=114	=114	=114	=114	=114	=114	=114
2r	.	2A	.	1r	.	2a	pal-
2C	cum	2G	.	.	.	2.cc	.
[1F	pal-	1A	-mis	2r	.	.	.
.	.	.	.	.	.	4b	.
.	.	.	.	2c	cum	4a	.
.	.	.	.	.	.	4g	.
=115	=115	=115	=115	=115	=115	=115	=115
2F]	.	1D	.	1f	pal-	2a	.
4E	.	.	.	.	.	1dd	.
4D	.	.	.	.	.	.	.
1A	-mis	2r	.	1e	.	.	.
.	.	2A	ob-	.	.	2cc#i	.
=116	=116	=116	=116	=116	=116	=116	=116
2r	.	2B-i	-vi-	1d	-mis	0dd	-mis
2D	ob-	2A	-a	.	.	.	.
4D	-vi-	2.F	ve-	[1f	ob-	.	.
4C	.	.	.	.	.	.	.
4D	.	.	.	.	.	.	.
4E	.	4G	.	.	.	.	.
=117	=117	=117	=117	=117	=117	=117	=117
4F	.	2A	.	1f]	.	1.cc	ob-
4G	.	.	.	.	.	.	.
1A	.	2F	.	.	.	.	.
.	.	2A	.	1e	-vi-	.	.
2G	.	2B	.	.	.	2b	.
=118	=118	=118	=118	=118	=118	=118	=118
2A	-a	2.c	.	2.e	-a	2.a	.
2.AA	ve-	.	.	.	.	.	.
.	.	4B	.	4d	.	4g	.
.	.	2A	.	4c	.	1cc	.
4BB	.	.	.	4B	.	.	.
4C	.	[2G	.	[2e	ve-	.	.
4D	.	.	.	.	.	.	.
=119	=119	=119	=119	=119	=119	=119	=119
2E	.	4G]	.	4e]	.	2b	.
.	.	4E	.	4d	.	.	.
2AA	.	2F	.	2c	.	2.a	-vi-
1E	-nit,	2.G	.	2.B	.	.	.
.	.	.	.	.	.	4g	.
.	.	.	.	.	.	2g	-a
.	.	4F	.	4c	.	.	.
=120	=120	=120	=120	=120	=120	=120	=120
2r	.	2D	.	4d	.	2f	.
.	.	.	.	4B	.	.	.
2.AA	ve-	4A	.	2.c	.	4e	.
.	.	4B	.	.	.	4d	.
.	.	4c	.	.	.	4e	.
4BB	.	4d	.	4B	.	4c	.
4C	.	[2e	.	2A	.	2cc	.
4D	.	.	.	.	.	.	.
=121	=121	=121	=121	=121	=121	=121	=121
2E	.	4e]	.	2G	.	2b	.
.	.	4d	.	.	.	.	.
2AA	.	2c	.	2.e	.	1a	ve-
1E	.	1B	.	.	.	.	.
.	.	.	.	4d	.	.	.
.	.	.	.	2B	.	2g#i	.
=122	=122	=122	=122	=122	=122	=122	=122
1AA	-nit	1A	-nit,	1c	-nit:	[0a	-nit:
2r	.	1r	.	1A	.	.	.
[2D	cum	.	.	.	.	.	.
=123	=123	=123	=123	=123	=123	=123	=123
2D]	.	0A	cum	0r	.	0a]	.
2C	pre-	.	.	.	.	.	.
2D	-ce	.	.	.	.	.	.
2F	vo-	.	.	.	.	.	.
=124	=124	=124	=124	=124	=124	=124	=124
4E	.	1G	pre-	0r	.	0r	.
4D	.	.	.	.	.	.	.
4C	.	.	.	.	.	.	.
4BB	.	.	.	.	.	.	.
4AA	.	1A	-ce	.	.	.	.
4BB	.	.	.	.	.	.	.
4C	.	.	.	.	.	.	.
4D	.	.	.	.	.	.	.
=125	=125	=125	=125	=125	=125	=125	=125
4E	.	2.G	vo-	2r	.	0r	.
4F	.	.	.	.	.	.	.
2.G	.	.	.	1d	cum	.	.
.	.	4A	.	.	.	.	.
.	.	4B	.	.	.	.	.
4F	.	4A	.	.	.	.	.
2E	.	2c	.	2c	pre-	.	.
=126	=126	=126	=126	=126	=126	=126	=126
1D	-to	2B	.	2d	-co	2r	.
.	.	2.A	.	2.f	vo-	1a	cum
1C	.	.	.	.	.	.	.
.	.	4G	.	4e	.	.	.
.	.	2E	.	[2e	.	2g	.
=127	=127	=127	=127	=127	=127	=127	=127
0r	.	1F	.	2e]	.	1a	pre-
.	.	.	.	2d	.	.	.
.	.	2.E	.	[1e	.	2.g	-ce
.	.	4F	.	.	.	4a	.
=128	=128	=128	=128	=128	=128	=128	=128
0r	.	2G	.	2e]	.	4b	.
.	.	.	.	.	.	4g	.
.	.	2A	.	4d	.	2cc	vo-
.	.	.	.	4c	.	.	.
.	.	1G	-to,	1d	-to,	4b	.
.	.	.	.	.	.	4a	.
.	.	.	.	.	.	4g	.
.	.	.	.	.	.	4f	.
=129	=129	=129	=129	=129	=129	=129	=129
1.A	cum	2r	.	1c	.	2.e	.
.	.	1c	cum	.	.	.	.
.	.	.	.	.	.	4d	.
.	.	.	.	2r	.	4e	.
.	.	.	.	.	.	4f	.
2G	pre-	2B	pre-	[2d	cum	[2g	.
=130	=130	=130	=130	=130	=130	=130	=130
1A	-ce	2c	.	2d]	.	2g]	.
.	.	2A	-ce	2c	pre-	2f	.
2.G	vo-	2B	vo-	4d	-ce	2.g	.
.	.	.	.	4c	.	.	.
.	.	2E	.	4B	.	.	.
4F	.	.	.	4A	.	4a	.
=131	=131	=131	=131	=131	=131	=131	=131
2E	.	1e	-to	2G	.	2b	.
2C	.	.	.	2.g	vo-	1cc	.
1G	.	1d	.	.	.	.	.
.	.	.	.	4f	.	.	.
.	.	.	.	2d	.	2b	.
=132	=132	=132	=132	=132	=132	=132	=132
[0C	-to	2r	.	1e	-to	0cc	-to
.	.	2.c	hym-	.	.	.	.
.	.	.	.	2r	.	.	.
.	.	4B	.	.	.	.	.
.	.	4A	.	[2c	hym-	.	.
.	.	4G	.	.	.	.	.
=133	=133	=133	=133	=133	=133	=133	=133
0C]	.	2A	.	4c]	.	2r	.
.	.	.	.	4B	.	.	.
.	.	1E	.	4A	.	2.cc	hym-
.	.	.	.	4G	.	.	.
.	.	.	.	2A	.	.	.
.	.	.	.	.	.	4b	.
.	.	[2c	.	2E	.	4a	.
.	.	.	.	.	.	4g	.
=134	=134	=134	=134	=134	=134	=134	=134
2r	.	4c]	.	2.c	.	2a	-nis
.	.	4B	.	.	.	.	.
2.C	hym-	2G	.	.	.	2g	.
.	.	.	.	4d	.	.	.
.	.	2A	.	[1e	.	[1cc	.
4BB	.	.	.	.	.	.	.
4AA	.	[2G	.	.	.	.	.
4GG	.	.	.	.	.	.	.
=135	=135	=135	=135	=135	=135	=135	=135
1AA	-nis	4G]	.	2e]	.	2cc]	.
.	.	4F#i	.	.	.	.	.
.	.	4F#i	.	4d	.	4b	.
.	.	4E	.	4c	.	4a	.
1GG	.	1G	-nis	1d	.	1b	.
=136	=136	=136	=136	=136	=136	=136	=136
[0C	.	1E	.	[0e	-nis	2r	.
.	.	.	.	.	.	2g	as-
.	.	2r	.	.	.	2a	-su-
.	.	2G	as-	.	.	2g	.
=137	=137	=137	=137	=137	=137	=137	=137
1C]	.	2A	-su-	0e]	.	2.cc	-mus
.	.	2G	.	.	.	.	.
.	.	.	.	.	.	4b	.
2r	.	1c	-mus	.	.	2a	.
2C	as-	.	.	.	.	2g	.
=138	=138	=138	=138	=138	=138	=138	=138
2D	-su-	2A	.	2r	.	2f	.
2E	.	1c	.	2G	as-	1e	.
1F	.	.	.	1A	-su-	.	.
.	.	4B	.	.	.	2d	.
.	.	4A	.	.	.	.	.
=139	=139	=139	=139	=139	=139	=139	=139
0E	-mus	2.G	.	1B	-mus	0e	.
.	.	4A	.	.	.	.	.
.	.	1B	.	2r	.	.	.
.	.	.	.	2G	ec-	.	.
=140	=140	=140	=140	=140	=140	=140	=140
0C	ec-	1E	.	1G	-ce	2r	.
.	.	.	.	.	.	2g	ec-
.	.	2r	.	2.c	.	1g	-ce
.	.	2G	ec-	.	.	.	.
.	.	.	.	4d	.	.	.
=141	=141	=141	=141	=141	=141	=141	=141
1.C	-ce	1G	-ce	4e	.	1.cc	.
.	.	.	.	4f	.	.	.
.	.	.	.	1g	.	.	.
.	.	1c	.	.	.	.	.
2D	.	.	.	2f	.	4b	.
.	.	.	.	.	.	4a	.
=142	=142	=142	=142	=142	=142	=142	=142
2E	.	2B	.	2e	.	2g	.
2F	.	2A	.	2d	.	1a	ti-
1E	ti-	1B	ti-	1e	ti-	.	.
.	.	.	.	.	.	2g#i	.
=143	=143	=143	=143	=143	=143	=143	=143
0AAl	-bi.	0Al	-bi.	0el	-bi.	0al	-bi.
==	==	==	==	==	==	==	==
*-	*-	*-	*-	*-	*-	*-	*-
!!!system-decoration: s1,s2,s3,s4
!!!RDF**kern: i = editorial accidental
!!!RDF**kern: l = terminal long
!!!ENC: Simon Frisch
!!!END: 2026/3/19
!!!EED: Benjamin Ory
!!!EEV: 2026/03/20
!!!YEC: Copyright 2026 Simon Frisch, All Rights Reserved
!!!ONB: Translated from MusicXML on 2026/03/20
!!!verovio: header encoded
!!!header-left: Edited by @{ENC} (2026)\n
!!!header-right:
!!!header-center: